Numix/16/status/indicator-keyboard-Fi.svg

<?xml version="1.0" encoding="UTF-8" standalone="no"?>
<svg
   xmlns:dc="http://purl.org/dc/elements/1.1/"
   xmlns:cc="http://creativecommons.org/ns#"
   xmlns:rdf="http://www.w3.org/1999/02/22-rdf-syntax-ns#"
   xmlns:svg="http://www.w3.org/2000/svg"
   xmlns="http://www.w3.org/2000/svg"
   xmlns:sodipodi="http://sodipodi.sourceforge.net/DTD/sodipodi-0.dtd"
   xmlns:inkscape="http://www.inkscape.org/namespaces/inkscape"
   viewBox="0 0 16 16"
   id="svg2"
   version="1.1"
   inkscape:version="0.91 r13725"
   sodipodi:docname="indicator-keyboard-Fi.svg">
  <metadata
     id="metadata13">
    <rdf:RDF>
      <cc:Work
         rdf:about="">
        <dc:format>image/svg+xml</dc:format>
        <dc:type
           rdf:resource="http://purl.org/dc/dcmitype/StillImage" />
      </cc:Work>
    </rdf:RDF>
  </metadata>
  <defs
     id="defs11" />
  <sodipodi:namedview
     pagecolor="#ffffff"
     bordercolor="#666666"
     borderopacity="1"
     objecttolerance="10"
     gridtolerance="10"
     guidetolerance="10"
     inkscape:pageopacity="0"
     inkscape:pageshadow="2"
     inkscape:window-width="640"
     inkscape:window-height="480"
     id="namedview9"
     showgrid="false"
     inkscape:zoom="14.75"
     inkscape:cx="8"
     inkscape:cy="8"
     inkscape:window-x="65"
     inkscape:window-y="24"
     inkscape:window-maximized="0"
     inkscape:current-layer="svg2" />
  <path
     style="fill:#ececec;fill-opacity:1"
     d="M 1.5996094 0 C 0.71320937 2.9605947e-16 0 0.71320937 0 1.5996094 L 0 14.400391 C 2.9605947e-16 15.286791 0.71320937 16 1.5996094 16 L 14.400391 16 C 15.286791 16 16 15.286791 16 14.400391 L 16 1.5996094 C 16 0.71320937 15.286791 0 14.400391 0 L 1.5996094 0 z M 10.248047 4.7460938 C 10.368047 4.7460938 10.470687 4.7890469 10.554688 4.8730469 C 10.638688 4.9510469 10.679687 5.0592656 10.679688 5.1972656 C 10.679688 5.3352656 10.638688 5.4452969 10.554688 5.5292969 C 10.470688 5.6072969 10.368047 5.6464844 10.248047 5.6464844 C 10.128047 5.6464844 10.025406 5.6072969 9.9414062 5.5292969 C 9.8574063 5.4452969 9.8164063 5.3352656 9.8164062 5.1972656 C 9.8164062 5.0592656 9.8574062 4.9510469 9.9414062 4.8730469 C 10.025406 4.7890469 10.128047 4.7460938 10.248047 4.7460938 z M 5.3203125 5.015625 L 8.875 5.015625 L 8.875 5.546875 L 5.9316406 5.546875 L 5.9316406 7.7441406 L 8.5429688 7.7441406 L 8.5429688 8.2753906 L 5.9316406 8.2753906 L 5.9316406 11.253906 L 5.3203125 11.253906 L 5.3203125 5.015625 z M 9.9589844 6.5996094 L 10.544922 6.5996094 L 10.544922 11.253906 L 9.9589844 11.253906 L 9.9589844 6.5996094 z "
     id="path4" />
</svg>

<svg xmlns="http://www.w3.org/2000/svg" viewBox="0 0 16 16">
 <path d="m 1.6 0 c -0.886 0 -1.6 0.713 -1.6 1.6 l 0 12.801 c 0 0.886 0.713 1.6 1.6 1.6 l 12.801 0 c 0.886 0 1.6 -0.713 1.6 -1.6 l 0 -12.801 c 0 -0.886 -0.713 -1.6 -1.6 -1.6 l -12.801 0 z m 8.648 4.746 c 0.12 0 0.223 0.043 0.307 0.127 c 0.084 0.078 0.125 0.186 0.125 0.324 c 0 0.138 -0.041 0.248 -0.125 0.332 c -0.084 0.078 -0.187 0.117 -0.307 0.117 c -0.12 0 -0.223 -0.039 -0.307 -0.117 c -0.084 -0.084 -0.125 -0.194 -0.125 -0.332 c 0 -0.138 0.041 -0.246 0.125 -0.324 c 0.084 -0.084 0.187 -0.127 0.307 -0.127 z m -4.928 0.27 l 3.555 0 l 0 0.531 l -2.943 0 l 0 2.197 l 2.611 0 l 0 0.531 l -2.611 0 l 0 2.979 l -0.611 0 l 0 -6.238 z m 4.639 1.584 l 0.586 0 l 0 4.654 l -0.586 0 l 0 -4.654 z" style="fill:#ececec;fill-opacity:1"/>
</svg>
